packages/astro-components-stencil/src/icons/format-bold.svg

<svg xmlns="http://www.w3.org/2000/svg" viewBox="0 0 24 24"><g xmlns="http://www.w3.org/2000/svg" id="format-bold" fill-rule="nonzero">
            <path d="M15.6 10.79c.97-.67 1.65-1.77 1.65-2.79 0-2.26-1.75-4-4-4H8c-.55 0-1 .45-1 1v12c0 .55.45 1 1 1h5.78c2.07 0 3.96-1.69 3.97-3.77.01-1.53-.85-2.84-2.15-3.44zM10 6.5h3c.83 0 1.5.67 1.5 1.5s-.67 1.5-1.5 1.5h-3v-3zm3.5 9H10v-3h3.5c.83 0 1.5.67 1.5 1.5s-.67 1.5-1.5 1.5z"/>
        </g></svg>

<svg width="24" height="24" viewBox="0 0 24 24" fill="none" xmlns="http://www.w3.org/2000/svg">
<path fill-rule="evenodd" clip-rule="evenodd" d="M15.6 10.79C16.57 10.12 17.25 9.02 17.25 8C17.25 5.74 15.5 4 13.25 4H8C7.45 4 7 4.45 7 5V17C7 17.55 7.45 18 8 18H13.78C15.85 18 17.74 16.31 17.75 14.23C17.76 12.7 16.9 11.39 15.6 10.79ZM10 6.5H13C13.83 6.5 14.5 7.17 14.5 8C14.5 8.83 13.83 9.5 13 9.5H10V6.5ZM10 15.5H13.5C14.33 15.5 15 14.83 15 14C15 13.17 14.33 12.5 13.5 12.5H10V15.5Z" fill="black"/>
</svg>
